icons/folder-ios-open.svg

<svg xmlns="http://www.w3.org/2000/svg" viewBox="0 0 32 32"><path fill="#78909c" d="M28.967 12H9.442a2 2 0 0 0-1.898 1.368L4 24V10h24a2 2 0 0 0-2-2H15.124a2 2 0 0 1-1.28-.464l-1.288-1.072A2 2 0 0 0 11.276 6H4a2 2 0 0 0-2 2v16a2 2 0 0 0 2 2h22l4.805-11.212A2 2 0 0 0 28.967 12Z"/><path fill="#cfd8dc" d="M12 18h2v10h-2zm0-4h2v2h-2z"/><path fill="#cfd8dc" fill-rule="evenodd" d="M16 15v12a1 1 0 0 0 1 1h6a1 1 0 0 0 1-1V15a1 1 0 0 0-1-1h-6a1 1 0 0 0-1 1Zm6 11h-4V16h4Zm10-10v-2h-5a1 1 0 0 0-1 1v6a1 1 0 0 0 1 1h3v4h-4v2h5a1 1 0 0 0 1-1v-6a1 1 0 0 0-1-1h-3v-4Z"/></svg>

<svg xmlns="http://www.w3.org/2000/svg" viewBox="0 0 32 32">
  <path d="M28.96692,12H9.44152a2,2,0,0,0-1.89737,1.36754L4,24V10H28a2,2,0,0,0-2-2H15.1241a2,2,0,0,1-1.28038-.46357L12.5563,6.46357A2,2,0,0,0,11.27592,6H4A2,2,0,0,0,2,8V24a2,2,0,0,0,2,2H26l4.80523-11.21213A2,2,0,0,0,28.96692,12Z" style="fill: #78909c"/>
  <g>
    <rect x="12" y="18" width="2" height="10" style="fill: #cfd8dc"/>
    <rect x="12" y="14" width="2" height="2" style="fill: #cfd8dc"/>
    <path d="M16,15V27a1,1,0,0,0,1,1h6a1,1,0,0,0,1-1V15a1,1,0,0,0-1-1H17A1,1,0,0,0,16,15Zm6,11H18V16h4Z" style="fill: #cfd8dc;fill-rule: evenodd"/>
    <path d="M32,16V14H27a1,1,0,0,0-1,1v6a1,1,0,0,0,1,1h3v4H26v2h5a1,1,0,0,0,1-1V21a1,1,0,0,0-1-1H28V16Z" style="fill: #cfd8dc;fill-rule: evenodd"/>
  </g>
</svg>
